X:40
T:New 6/8
M:6/8
L:1/8
K:D
%%MIDI channel 1
%%MIDI program 72
%%MIDI transpose 8
%%MIDI grace 1/8
%%MIDI ratio 3 1
AAA AGA|d2e f2g|afd ede|fed Bcd|AAA AFA|d2e f2g|afd edc|d3 z3::
ggg gab|fff fga|eee ede|fed Bcd|AAA AFA|d2e f2g|afd edc|d3 z3:|
